sass/icons/active-symbols/volatility/1s300 index/ic-300-1s-index.svg

<svg width="32" height="32" viewBox="0 0 32 32" fill="none" xmlns="http://www.w3.org/2000/svg">
<path d="M22.5 13.0001H24V22H22.5V32H21.5V22H20V13.0001H21.5V11.0001H22.5V13.0001Z" fill="#85ACB0"/>
<path d="M30 11V18H28.5V22H27.5V18H26V11H30Z" fill="#85ACB0"/>
<path d="M16.5 20V16H15.5V20H14V28H15.5V30H16.5V28H18V20H16.5Z" fill="#85ACB0"/>
<path d="M10.5 15H12V21H10.5V28H9.5V21H8V15H9.5V13H10.5V15Z" fill="#85ACB0"/>
<path d="M4.5 19H6V23H4.5V25H3.5V23H2V19H3.5V17H4.5V19Z" fill="#85ACB0"/>
<path d="M22 5C22 2.23858 24.2386 0 27 0C29.7614 0 32 2.23858 32 5C32 7.76142 29.7614 10 27 10C24.2386 10 22 7.76142 22 5Z" fill="#FF444F"/>
<path d="M24.2534 7.0005V6.2745H25.3814V3.4665H25.3274L24.4754 4.5825L23.8994 4.1325L24.9014 2.8125H26.2814V6.2745H27.1694V7.0005H24.2534Z" fill="white"/>
<path d="M28.7691 7.0725C28.4651 7.0725 28.2091 7.0245 28.0011 6.9285C27.7931 6.8285 27.6071 6.6885 27.4431 6.5085L27.9651 5.9805C28.0771 6.1045 28.2011 6.2025 28.3371 6.2745C28.4731 6.3465 28.6271 6.3825 28.7991 6.3825C28.9751 6.3825 29.0971 6.3565 29.1651 6.3045C29.2331 6.2485 29.2671 6.1745 29.2671 6.0825C29.2671 5.9345 29.1611 5.8465 28.9491 5.8185L28.6071 5.7765C27.8991 5.6885 27.5451 5.3645 27.5451 4.8045C27.5451 4.6525 27.5731 4.5145 27.6291 4.3905C27.6891 4.2625 27.7711 4.1545 27.8751 4.0665C27.9831 3.9745 28.1111 3.9045 28.2591 3.8565C28.4111 3.8045 28.5811 3.7785 28.7691 3.7785C28.9331 3.7785 29.0771 3.7905 29.2011 3.8145C29.3291 3.8345 29.4411 3.8665 29.5371 3.9105C29.6371 3.9505 29.7271 4.0025 29.8071 4.0665C29.8911 4.1265 29.9731 4.1945 30.0531 4.2705L29.5431 4.7925C29.4431 4.6925 29.3291 4.6145 29.2011 4.5585C29.0771 4.4985 28.9491 4.4685 28.8171 4.4685C28.6651 4.4685 28.5571 4.4925 28.4931 4.5405C28.4291 4.5885 28.3971 4.6525 28.3971 4.7325C28.3971 4.8165 28.4191 4.8825 28.4631 4.9305C28.5111 4.9745 28.5991 5.0065 28.7271 5.0265L29.0811 5.0745C29.7731 5.1665 30.1191 5.4825 30.1191 6.0225C30.1191 6.1745 30.0871 6.3145 30.0231 6.4425C29.9591 6.5705 29.8671 6.6825 29.7471 6.7785C29.6311 6.8705 29.4891 6.9425 29.3211 6.9945C29.1571 7.0465 28.9731 7.0725 28.7691 7.0725Z" fill="white"/>
<path d="M0 2C0 0.89543 0.895431 0 2 0H17C18.1046 0 19 0.895431 19 2V8C19 9.10457 18.1046 10 17 10H2C0.895431 10 0 9.10457 0 8V2Z" fill="#0E0E0E"/>
<path d="M4.40068 4.62431C4.69935 4.62431 4.91535 4.56831 5.04868 4.45631C5.18735 4.33898 5.25668 4.19498 5.25668 4.02431V3.96831C5.25668 3.76565 5.19001 3.60298 5.05668 3.48031C4.92868 3.35765 4.74468 3.29631 4.50468 3.29631C4.28068 3.29631 4.07001 3.35498 3.87268 3.47231C3.67534 3.58431 3.50734 3.74698 3.36868 3.96031L2.61668 3.25631C2.72334 3.11765 2.83801 2.99231 2.96068 2.88031C3.08334 2.76298 3.22201 2.66431 3.37668 2.58431C3.53134 2.49898 3.70468 2.43498 3.89668 2.39231C4.08868 2.34431 4.30468 2.32031 4.54468 2.32031C4.84335 2.32031 5.11268 2.35498 5.35268 2.42431C5.59801 2.49365 5.80601 2.59498 5.97668 2.72831C6.15268 2.85631 6.28601 3.01098 6.37668 3.19231C6.47268 3.37365 6.52068 3.57631 6.52068 3.80031C6.52068 3.97631 6.49134 4.13631 6.43268 4.28031C6.37934 4.42431 6.30201 4.54965 6.20068 4.65631C6.10468 4.76298 5.99268 4.85098 5.86468 4.92031C5.73668 4.98431 5.60068 5.02965 5.45668 5.05631V5.10431C5.62201 5.13631 5.77401 5.18965 5.91268 5.26431C6.05668 5.33365 6.17934 5.42431 6.28068 5.53631C6.38734 5.64831 6.47001 5.78165 6.52868 5.93631C6.58734 6.08565 6.61668 6.25631 6.61668 6.44831C6.61668 6.69898 6.56601 6.92565 6.46468 7.12831C6.36335 7.33098 6.21935 7.50431 6.03268 7.64831C5.84601 7.79231 5.62201 7.90431 5.36068 7.98431C5.09934 8.05898 4.81134 8.09631 4.49668 8.09631C4.21401 8.09631 3.96334 8.06698 3.74468 8.00831C3.52601 7.94965 3.33401 7.87231 3.16868 7.77631C3.00868 7.67498 2.86734 7.56031 2.74468 7.43231C2.62734 7.30431 2.52334 7.16831 2.43268 7.02431L3.32068 6.33631C3.44334 6.56565 3.59268 6.75498 3.76868 6.90431C3.95001 7.04831 4.19268 7.12031 4.49668 7.12031C4.76868 7.12031 4.97935 7.05365 5.12868 6.92031C5.28335 6.78165 5.36068 6.59498 5.36068 6.36031V6.31231C5.36068 6.08298 5.27268 5.91231 5.09668 5.80031C4.92601 5.68298 4.68868 5.62431 4.38468 5.62431H3.88068V4.62431H4.40068Z" fill="white"/>
<path d="M9.50155 8.09631C8.77089 8.09631 8.22955 7.84298 7.87755 7.33631C7.52555 6.82965 7.34955 6.12031 7.34955 5.20831C7.34955 4.29631 7.52555 3.58698 7.87755 3.08031C8.22955 2.57365 8.77089 2.32031 9.50155 2.32031C10.2322 2.32031 10.7736 2.57365 11.1256 3.08031C11.4776 3.58698 11.6536 4.29631 11.6536 5.20831C11.6536 6.12031 11.4776 6.82965 11.1256 7.33631C10.7736 7.84298 10.2322 8.09631 9.50155 8.09631ZM9.50155 7.08031C9.82155 7.08031 10.0429 6.96298 10.1656 6.72831C10.2882 6.49365 10.3496 6.16298 10.3496 5.73631V4.68031C10.3496 4.25365 10.2882 3.92298 10.1656 3.68831C10.0429 3.45365 9.82155 3.33631 9.50155 3.33631C9.18155 3.33631 8.96022 3.45365 8.83755 3.68831C8.71489 3.92298 8.65355 4.25365 8.65355 4.68031V5.73631C8.65355 6.16298 8.71489 6.49365 8.83755 6.72831C8.96022 6.96298 9.18155 7.08031 9.50155 7.08031Z" fill="white"/>
<path d="M14.2984 8.09631C13.5678 8.09631 13.0264 7.84298 12.6744 7.33631C12.3224 6.82965 12.1464 6.12031 12.1464 5.20831C12.1464 4.29631 12.3224 3.58698 12.6744 3.08031C13.0264 2.57365 13.5678 2.32031 14.2984 2.32031C15.0291 2.32031 15.5704 2.57365 15.9224 3.08031C16.2744 3.58698 16.4504 4.29631 16.4504 5.20831C16.4504 6.12031 16.2744 6.82965 15.9224 7.33631C15.5704 7.84298 15.0291 8.09631 14.2984 8.09631ZM14.2984 7.08031C14.6184 7.08031 14.8398 6.96298 14.9624 6.72831C15.0851 6.49365 15.1464 6.16298 15.1464 5.73631V4.68031C15.1464 4.25365 15.0851 3.92298 14.9624 3.68831C14.8398 3.45365 14.6184 3.33631 14.2984 3.33631C13.9784 3.33631 13.7571 3.45365 13.6344 3.68831C13.5118 3.92298 13.4504 4.25365 13.4504 4.68031V5.73631C13.4504 6.16298 13.5118 6.49365 13.6344 6.72831C13.7571 6.96298 13.9784 7.08031 14.2984 7.08031Z" fill="white"/>
</svg>

<svg width="32" height="32" fill="none" xmlns="http://www.w3.org/2000/svg"><path d="M22.5 13H24v9h-1.5v10h-1V22H20v-9h1.5v-2h1v2zM30 11v7h-1.5v4h-1v-4H26v-7h4zM16.5 20v-4h-1v4H14v8h1.5v2h1v-2H18v-8h-1.5zM10.5 15H12v6h-1.5v7h-1v-7H8v-6h1.5v-2h1v2zM4.5 19H6v4H4.5v2h-1v-2H2v-4h1.5v-2h1v2z" fill="#85ACB0"/><path d="M22 5a5 5 0 1110 0 5 5 0 01-10 0z" fill="#FF444F"/><path d="M24.253 7v-.726h1.128V3.466h-.054l-.852 1.116-.576-.45 1.002-1.32h1.38v3.462h.888V7h-2.916zM28.77 7.072c-.305 0-.56-.048-.769-.144-.208-.1-.394-.24-.558-.42l.522-.527c.112.123.236.221.372.293.136.072.29.109.462.109.176 0 .298-.027.366-.079a.273.273 0 00.102-.222c0-.147-.106-.236-.318-.263l-.342-.042c-.708-.088-1.062-.413-1.062-.973 0-.152.028-.29.084-.413a.942.942 0 01.246-.325c.108-.091.236-.161.384-.21.152-.051.322-.077.51-.077.164 0 .308.012.432.035.128.02.24.052.336.096.1.04.19.093.27.156.084.06.166.128.246.205l-.51.522c-.1-.1-.214-.179-.342-.234a.872.872 0 00-.384-.09c-.152 0-.26.023-.324.071a.228.228 0 00-.096.192c0 .084.022.15.066.199.048.043.136.075.264.096l.354.047c.692.093 1.038.409 1.038.949a.926.926 0 01-.096.42c-.064.128-.156.24-.276.336a1.293 1.293 0 01-.426.216 1.822 1.822 0 01-.552.077z" fill="#fff"/><path d="M0 2a2 2 0 012-2h15a2 2 0 012 2v6a2 2 0 01-2 2H2a2 2 0 01-2-2V2z" fill="#0E0E0E"/><path d="M4.4 4.624c.3 0 .515-.056.649-.168a.545.545 0 00.208-.432v-.056a.631.631 0 00-.2-.488c-.128-.122-.312-.184-.552-.184-.224 0-.435.059-.632.176a1.464 1.464 0 00-.504.488l-.752-.704a2.91 2.91 0 01.344-.376c.122-.117.261-.216.416-.296.154-.085.328-.149.52-.192.192-.048.408-.072.648-.072.298 0 .568.035.808.104.245.07.453.171.624.304.176.128.309.283.4.464.096.182.144.384.144.608 0 .176-.03.336-.088.48a1.248 1.248 0 01-.568.64 1.53 1.53 0 01-.408.136v.048c.165.032.317.086.456.16.144.07.266.16.368.272.106.112.189.246.248.4.058.15.088.32.088.512 0 .251-.051.478-.152.68a1.496 1.496 0 01-.432.52 2.09 2.09 0 01-.672.336c-.262.075-.55.112-.864.112-.283 0-.534-.029-.752-.088a2.362 2.362 0 01-.576-.232 2.254 2.254 0 01-.424-.344 2.85 2.85 0 01-.312-.408l.888-.688c.122.23.272.419.448.568.181.144.424.216.728.216.272 0 .482-.066.632-.2a.715.715 0 00.232-.56v-.048c0-.229-.088-.4-.264-.512-.171-.117-.408-.176-.712-.176H3.88v-1h.52zM9.502 8.096c-.731 0-1.272-.253-1.624-.76-.352-.506-.528-1.216-.528-2.128 0-.912.176-1.621.528-2.128.352-.506.893-.76 1.624-.76.73 0 1.272.254 1.624.76.352.507.528 1.216.528 2.128 0 .912-.176 1.622-.528 2.128-.352.507-.894.76-1.624.76zm0-1.016c.32 0 .54-.117.664-.352.122-.234.184-.565.184-.992V4.68c0-.426-.062-.757-.184-.992-.123-.234-.344-.352-.664-.352-.32 0-.542.118-.664.352-.123.235-.184.566-.184.992v1.056c0 .427.06.758.184.992.122.235.344.352.664.352zM14.298 8.096c-.73 0-1.272-.253-1.624-.76-.352-.506-.528-1.216-.528-2.128 0-.912.176-1.621.528-2.128.352-.506.894-.76 1.624-.76.731 0 1.272.254 1.624.76.352.507.528 1.216.528 2.128 0 .912-.176 1.622-.528 2.128-.352.507-.893.76-1.624.76zm0-1.016c.32 0 .542-.117.664-.352.123-.234.184-.565.184-.992V4.68c0-.426-.06-.757-.184-.992-.122-.234-.344-.352-.664-.352-.32 0-.54.118-.664.352-.122.235-.184.566-.184.992v1.056c0 .427.062.758.184.992.123.235.344.352.664.352z" fill="#fff"/></svg>
